!!!SOCIAL_FUNCTION:	songs of an undetermined dance
!!!PDT:	1922
!!!OTL: No_29_Undetermined_Dance_Song_(c).krn
!!!REG: Southwest
!!!LANG: Non-Tone
!!!LING_GROUP: Uto-Aztecan
**kern
*staff1
=1-
*clefF4
*k[f#]
*M2/4
4.d\
8A\
=2
2d\
=3
8A\L
8c\J
8c\L
16A\L
16F#\JJ
=4
2A\
=5
8E\L
8G\J
8G\L
16E\L
16D\JJ
=6
2E\
=7
8D\L
8E\J
8E\L
16D\L
16BB\JJ
=8
2D\
=9
8D\L
8G\J
8G\L
16E\L
16D\JJ
=10
2E\
=11
8D\L
8E\J
8E\L
16D\L
16BB\JJ
=12
2D\
=13
8D\L
8G\J
8G\L
16E\L
16D\JJ
=14
4.D\
8E\
=15
2D\
==
*-
